!!!COM: Al-Khateeb, Abdul Rahman
!!!CDT: b.1923
!!!OTL: National Anthem, Saudia Arabia
!!!ENC: Davis, Matthew J.
!!Vocal Line Only
**kern
*clefG2
*k[b-]
*F:
*M4/4
==!|:1
8.f
16f
[2f
8f]
8c
=2
8.f
16g
8a
8b-
2cc
=3
8.cc
16dd
8cc
8b-
8a
8g
8f
8e
=4
!First Ending
8f
8r
4r
2r
==:|!5
!Second Ending
8f
8r
4r
2r
==6
8.cc
16cc
8cc
8dd
8.cc
16b-
8a
8f
=7
8.cc
16cc
8cc
8ff
8ee
8dd
8cc
8cc
=8
8.b-
16b-
8b-
8dd
8.cc
16b-
8a
8f
=9
4cc
8.dd
16ee
2ff
=10
8.f
16f
[2f
8f]
8c
=11
8.f
16g
8a
8b-
8.cc
16cc
4cc
=12
8.cc
16dd
8cc
8b-
4cc
8.cc
16cc
=13
4ff
8.cc
16cc
4ff
4r
==|!
*-
